X: 42939
T: William Kelly's
R: reel
M: 4/4
K: Gmajor
|:ge|dBAB GABG|ABAG EGGE|DGGF GABG|Beed e2ge|
dBAB GABG|ABAG EGGE|DGGF GABG|1 BdAB G2ge:|2 BdAB G2GA||
BGGG BGcG|dGGG BGcG|dGGG BGcG|AFDF AFDF|
BGGG BGcG|d2ef gedB|GABG AGEF|1 G2GA G2GA:|2 G2GA G2Bc||

